X: 7436
T: Clouded Sky, The
R: jig
M: 6/8
K: Dmajor
F3 D3|:DFA dAF|G3 E3|DFA dAF|GFE CED|
DFA dAF|G3 E3|DFA dfa|gBc d3:|
|:DFA dfa|GBd gab|agf gfe|fdc c3|
DFA dfa|GBd gab|agf gec|edc D3:|

